X:144
%%pagewidth 7.5in
%%vocalfont Baskerville10Pro 12
T:Sir Eglamore
M:6/8
L:1/8
K:G
%%score 1 2
V:1 clef-treble
V:2 clef-bass octave=-1
V:1
G|[B,G]2G (E>F)G&x3Cx2|[A,A]2F D3|"^Chorus."[DGB]3[CGc]3|[Gd]2B G2||
w:Sir Eg-la-more,* that va-liant knight, Fa, la, lanky down dilly.
V:2
z|G,3C3|F,6|G,3E3|B,3-B,2||
V:1
"^Solo."G|[B,G]2G (E>F)G&x3Cx2|[A,A]2F D3|"^Chorus."[DGB]3[CGc]3|[Gd]2B G2||
w:He took his sword,* and went to fight, Fa, la, lanky down dilly.
V:2
z|G,3C3|F,6|G,3E3|B,3-B,2||
V:1
"^Solo."G|[GB]2[Ac] [Bd]2[GB]|[ce]2[Bd] [Ac]2[GB]|[FA]2[EG] [DF]2[^CE]|[DA]2G (F2E)|
w:And as he rode o'er hill and dale, All arm'd up-on his shirt of mail,*
V:2
z|[G,G]6-|[G,G]6|[DA]3-[DA]2[GA]|[FA]3[DA=c]3|
V:1
"^Chorus."D3[DG]3|[A,F]3 E>FE&x3Cx2|[B,D]2G G>A[CF]&x3Cx2|[B,G]3-[B,G]2||
w:Fa la la, fa la la, Fa la, lan-ky down dilly.*
V:2
[GB]3B,3|D3F3|G3E2D|G,3-G,2||

